X:1
T:Mr. Charles Grant's (Aberlour)
T:Mr. Charles Grant's (Aberlour)
T:Alexander Walker
C:Alexander Walker
L:1/8
M:4/4
K:D
V:1 treble 
V:1
 d | A2 (G/F/).E/.D/ E<B,B,>E | F>AG>B A<d d>f | A2 (G/F/).E/.D/ E<B,B,>E | d>cAF (D2 D) :| g | %6
 f<d d>A =c>deg | f<def a>bag | f>ddA =c<def | d>BAF D2 D>g | f<d d>A (=c>d)eg | f<ddA B<d A<F | %12
 G>A B/A/G/F/ B<EE>F | D>B,B,A, (D2 D) || %14

